local/share/icons/dracula-icons-main/16/places/gnome-fs-directory-visiting.svg

<?xml version="1.0" encoding="UTF-8"?>
<svg xmlns="http://www.w3.org/2000/svg" xmlns:xlink="http://www.w3.org/1999/xlink" width="16" height="16" viewBox="0 0 16 16">
<defs>
<filter id="filter-remove-color" x="0%" y="0%" width="100%" height="100%">
<feColorMatrix color-interpolation-filters="sRGB" values="0 0 0 0 1 0 0 0 0 1 0 0 0 0 1 0 0 0 1 0" />
</filter>
<mask id="mask-0">
<g filter="url(#filter-remove-color)">
<rect x="-1.6" y="-1.6" width="19.2" height="19.2" fill="rgb(0%, 0%, 0%)" fill-opacity="0.5"/>
</g>
</mask>
<clipPath id="clip-0">
<rect x="0" y="0" width="16" height="16"/>
</clipPath>
<g id="source-5653" clip-path="url(#clip-0)">
<path fill-rule="nonzero" fill="rgb(21.176471%, 22.352941%, 28.627451%)" fill-opacity="1" d="M 2 1 L 14 1 C 14.550781 1 15 1.449219 15 2 L 15 5 C 15 5.550781 14.550781 6 14 6 L 2 6 C 1.449219 6 1 5.550781 1 5 L 1 2 C 1 1.449219 1.449219 1 2 1 Z M 2 1 "/>
</g>
<mask id="mask-1">
<g filter="url(#filter-remove-color)">
<rect x="-1.6" y="-1.6" width="19.2" height="19.2" fill="rgb(0%, 0%, 0%)" fill-opacity="0.25"/>
</g>
</mask>
<clipPath id="clip-1">
<rect x="0" y="0" width="16" height="16"/>
</clipPath>
<g id="source-5658" clip-path="url(#clip-1)">
<path fill-rule="nonzero" fill="rgb(100%, 100%, 100%)" fill-opacity="1" d="M 8.917969 3 L 7.859375 3.28125 L 7 5 L 1.453125 5 L 0.28125 5.3125 C 0.109375 5.492188 0 5.730469 0 6 L 0 7.460938 L 15.628906 3.273438 C 15.625 3.265625 15.617188 3.265625 15.613281 3.261719 C 15.527344 3.1875 15.4375 3.125 15.339844 3.082031 C 15.230469 3.03125 15.113281 3 15 3 Z M 16 4.226562 L 0 8.519531 L 0 10.589844 L 16 6.296875 Z M 16 7.351562 L 0 11.644531 L 0 13.714844 L 16 9.425781 Z M 16 10.480469 L 0.28125 14.695312 C 0.464844 14.882812 0.714844 15 1 15 L 6.863281 15 L 16 12.550781 Z M 16 13.609375 L 10.804688 15 L 15 15 C 15.554688 15 16 14.554688 16 14 Z M 16 13.609375 "/>
</g>
</defs>
<g mask="url(#mask-0)">
<use xlink:href="#source-5653"/>
</g>
<path fill-rule="nonzero" fill="rgb(21.176471%, 22.352941%, 28.627451%)" fill-opacity="1" d="M 8 3 L 7 5 L 1 5 C 0.445312 5 0 5.445312 0 6 L 0 14 C 0 14.554688 0.445312 15 1 15 L 15 15 C 15.554688 15 16 14.554688 16 14 L 16 4 C 16 3.5 15.5 3 15 3 Z M 8 3 "/>
<g mask="url(#mask-1)">
<use xlink:href="#source-5658"/>
</g>
</svg>

<svg width="16" height="16" version="1.1" viewBox="0 0 16 16" xmlns="http://www.w3.org/2000/svg">
 <defs>
  <style id="current-color-scheme" type="text/css">.ColorScheme-Text { color:#FFFFFF; } .ColorScheme-Highlight { color:#5294e2; }</style>
 </defs>
 <rect class="ColorScheme-Highlight" fill="#363949" x=".9998" y="1" width="14" height="5" rx="1" ry="1" enable-background="new" opacity=".5" style="paint-order:stroke markers fill"/>
 <path class="ColorScheme-Highlight" fill="#363949" d="m8 3-1 2h-6c-0.554 0-1 0.446-1 1v8c0 0.554 0.446 1 1 1h14c0.554 0 1-0.446 1-1v-10c0-0.5-0.5-1-1-1z" enable-background="new" />
 <path d="m8.918 3-1.0586 0.2832h-0.0019531l-0.85742 1.7168h-5.5469l-1.1738 0.31445c-0.17023 0.17915-0.2793 0.41776-0.2793 0.68555v1.459l15.629-4.1875c-0.00537-0.004755-0.012134-0.0070521-0.017578-0.011719-0.084315-0.072276-0.17537-0.13507-0.27344-0.17969-0.109-0.046894-0.22279-0.080078-0.33789-0.080078h-6.082zm7.082 1.2285-16 4.2891v2.0703l16-4.2891v-2.0703zm0 3.125-16 4.2891v2.0703l16-4.2871v-2.0723zm0 3.127-15.717 4.2129c0.18159 0.18781 0.43371 0.30664 0.7168 0.30664h5.8633l9.1367-2.4492v-2.0703zm0 3.127-5.1934 1.3926h4.1934c0.554 0 1-0.446 1-1v-0.39258z" enable-background="new" fill="#fff" opacity=".25"/>
</svg>
